X: 0801
T: GORDON'S REEL
B: Oliver Ditson "The Boston Collection of Instrumental Music" 1910 p.80 #1
F: http://conquest.imslp.info/files/imglnks/usimg/8/8f/IMSLP175643-PMLP309456-bostoncollection00bost_bw.pdf
%: 2012 John Chambers <jc:trillian.mit.edu>
M: 4/4
L: 1/8
K: D
|:\
d2fd Adfd | GeFd eAcA |\
d2fd Adfd | gbaf d/d/d d2 :|
(3faf df (3gbg eg | (3faf df geeg |\
(3faf df (3gbg eg | afge d/d/d dg |
(3faf df (3gbg eg | (3faf df geeG |\
FDGE AFdA | GBAG D/D/D D2 |]

%%sep 1 1 500
%%sep 1 1 500
